images/reservation/arrow.svg

<svg width="20" height="20" viewBox="0 0 20 20" fill="none" xmlns="http://www.w3.org/2000/svg">
<path fill-rule="evenodd" clip-rule="evenodd" d="M11.0775 3.57745C11.4029 3.25201 11.9306 3.25201 12.256 3.57745L18.0893 9.41078C18.4148 9.73622 18.4148 10.2639 18.0893 10.5893L12.256 16.4226C11.9306 16.7481 11.4029 16.7481 11.0775 16.4226C10.7521 16.0972 10.7521 15.5696 11.0775 15.2441L15.4882 10.8334H2.50008C2.03984 10.8334 1.66675 10.4603 1.66675 10C1.66675 9.5398 2.03984 9.16671 2.50008 9.16671H15.4882L11.0775 4.75596C10.7521 4.43053 10.7521 3.90289 11.0775 3.57745Z" fill="#424F7B"/>
</svg>

<svg width="20" height="20" fill="none" xmlns="http://www.w3.org/2000/svg"><path fill-rule="evenodd" clip-rule="evenodd" d="M11.078 3.577a.833.833 0 0 1 1.178 0l5.833 5.834a.833.833 0 0 1 0 1.178l-5.833 5.834a.833.833 0 1 1-1.178-1.179l4.41-4.41H2.5a.833.833 0 0 1 0-1.667h12.988l-4.41-4.411a.833.833 0 0 1 0-1.179Z" fill="#424F7B"/></svg>
